X:1
T:Le retour des hirondelles
C:Toon Van Mierlo
K:C
M:3/4
L:1/4
"C"cEF|"C/B"G2D|"C/A"EFA|"C/F"G F/E/ D/C/|
"C/D"D/D/ C/D/ E/F/|"C/E"BcG|"C/F"Gce/c/|"C/G"d2B/c/::
"C/A"E F/E/ F/A/|"C/B"G2 A/B/|"C/F"c3|cEF|
"C/G"D2G|"C/A"GF/E/C|"C/E"CcB|"C/F"A3:|
